icon-themes/breeze_svg/cmd/lc_freezepanes.svg

<svg viewBox="0 0 24 24" xmlns="http://www.w3.org/2000/svg"><path d="m4 4v7 1 2 1 5h16v-5-1-2-1-7zm4 4h1 1 1v3h-1-1-1zm4 0h3v3h-3zm4 0h3v3h-3zm-8 4h1 1 1v3h-3v-1zm4 0h3v3h-3zm4 0h3v3h-3zm-8 4h3v3h-1-1-1zm4 0h3v3h-3zm4 0h3v3h-3z" fill="#4d4d4d"/></svg>

<svg xmlns="http://www.w3.org/2000/svg" viewBox="0 0 24 24">
 <path 
     style="fill:#4d4d4d" 
     d="M 4 4 L 4 11 L 4 12 L 4 14 L 4 15 L 4 20 L 20 20 L 20 15 L 20 14 L 20 12 L 20 11 L 20 4 L 4 4 z M 8 8 L 9 8 L 10 8 L 11 8 L 11 11 L 10 11 L 9 11 L 8 11 L 8 8 z M 12 8 L 15 8 L 15 11 L 12 11 L 12 8 z M 16 8 L 19 8 L 19 11 L 16 11 L 16 8 z M 8 12 L 9 12 L 10 12 L 11 12 L 11 15 L 8 15 L 8 14 L 8 12 z M 12 12 L 15 12 L 15 15 L 12 15 L 12 12 z M 16 12 L 19 12 L 19 15 L 16 15 L 16 12 z M 8 16 L 11 16 L 11 19 L 10 19 L 9 19 L 8 19 L 8 16 z M 12 16 L 15 16 L 15 19 L 12 19 L 12 16 z M 16 16 L 19 16 L 19 19 L 16 19 L 16 16 z "
     />
 </svg>
